apps/spreadsheeteditor/main/resources/img/toolbar/2.5x/btn-trace-dependents.svg

<svg width="20" height="20" viewBox="0 0 20 20" fill="none" xmlns="http://www.w3.org/2000/svg">
<path fill-rule="evenodd" clip-rule="evenodd" d="M17 3H11V7H17V3ZM18 7V3V2H17H11H10V3V7V8V9.00001L11 9V8H17V12H14L14 13H17H18V12V8V7ZM10 16V17V18H9H3H2V17V13V12H3H7.99999L7.99999 13H3V17H9V16H9.49999H9.99999L10 16Z" fill="black"/>
<path fill-rule="evenodd" clip-rule="evenodd" d="M13 13L12 13L12 11.7071L8.25735 15.4498L7.55025 14.7426L11.2929 11L10 11L10 10L13 10L13 13Z" fill="black"/>
</svg>

<svg xmlns="http://www.w3.org/2000/svg" width="20" height="20" fill="none"><path fill="#000" d="M8 13H3v4h6v-1h1v2H2v-6h6v1Z"/><path fill="#000" d="M13 13h-1v-1.293l-3.646 3.646-.708-.707L11.293 11H10v-1h3v3Z"/><path fill="#000" d="M18 13h-4v-1h3V8h-6v1h-1V2h8v11Zm-7-6h6V3h-6v4Z"/></svg>
